X:1
T:Title
%%score { 1 | 2 }
L:1/8
Q:1/4=106
M:2/4
K:F
V:1 treble nm="Grand Piano"
V:2 bass 
V:1
 FG AB | [Ac]2 A2 | FE FA | [EG]4 | FG AB | [CAc]2 [CFA]2 | [DG][DF] [CEA][B,CG] | [A,CF]4 | %8
w: T.~Martin~Towne * * *||||||||
 [EG][EG] [EG][EG] | A2 A2 | BB dd | c4 | [Ec][EB] [A,EA][B,EG] | [A,DF]2 [DFB]2 | %14
w: ||||||
 [CFA][Fc] [EG][EA] | F4 | de fd | c2 A2 | Ge de | [Ec]4 | FG AB | [CAc]2 [CFA]2 | %22
w: ||||||||
 [DG][DF] [CEA][B,CG] | [A,CF]4 |] %24
w: ||
V:2
 [F,A,][F,B,F] [F,CF][F,DF] | [F,C]2 [F,CF]2 | [A,C][B,C] [A,C][F,CF] | [C,C]4 | %4
 [F,A,][F,B,F] [F,CF][F,DF] | F,2 F,2 | B,,B,, C,C, | F,4 | [C,C][C,C] [C,C][C,C] | %9
 [F,CF]2 [F,CF]2 | [B,DF][B,DF] [B,F][B,F] | [F,A,F]4 | [C,G,][C,G,] C,C, | D,2 B,,2 | %14
 C,[C,A,] [C,B,][C,C] | [F,A,]4 | [B,F][B,CF] [B,DF][B,F] | [A,CF]2 [F,CF]2 | %18
 [G,CE][G,CG] [G,=B,F][G,B,G] | [C,C]4 | [F,A,][F,B,F] [F,CF][F,DF] | F,2 F,2 | B,,B,, C,C, | %23
 F,4 |] %24

